<?xml version="1.0" encoding="UTF-8"?>
<map version="1.10" tiledversion="1.11.0" orientation="orthogonal" renderorder="right-down" width="20" height="12" tilewidth="48" tileheight="48" infinite="0" nextlayerid="3" nextobjectid="12">
 <properties>
  <property name="title" value="Màn 27 — Bàu Sấu"/>
  <property name="background" value="game/level_01_background.png"/>
  <property name="startingLives" type="int" value="24"/>
  <property name="startingGold" type="int" value="181"/>
  <property name="timeBetweenWaves" type="float" value="3.0"/>
  <property name="towers" value="arrow,cannon,flamingArrow"/>
  <property name="enemyHp" type="float" value="622"/>
  <property name="enemySpeed" type="float" value="77"/>
  <property name="enemyGold" type="int" value="13"/>
  <property name="enemyLives" type="int" value="1"/>
  <property name="waves" value="15@0.48;16@0.46;17@0.44;9@0.42+9@0.67;19@0.40;20@0.38;21@0.36;11@0.34+11@0.54;23@0.32;24@0.30;25@0.28;13@0.26+13@0.42;27@0.24;28@0.22;29@0.22;17@0.22+17@0.35"/>
 </properties>
 <objectgroup id="1" name="path">
  <object id="1" name="river" x="0" y="0">
   <polyline points="984,120 792,120 792,456 504,456 504,168 216,168 216,456 -24,456"/>
  </object>
 </objectgroup>
 <objectgroup id="2" name="buildspots">
  <object id="2" x="840" y="216"><point/></object>
  <object id="3" x="696" y="360"><point/></object>
  <object id="4" x="648" y="504"><point/></object>
  <object id="5" x="552" y="312"><point/></object>
  <object id="6" x="408" y="216"><point/></object>
  <object id="7" x="360" y="72"><point/></object>
  <object id="8" x="264" y="312"><point/></object>
  <object id="9" x="120" y="360"><point/></object>
  <object id="10" x="312" y="504"><point/></object>
 </objectgroup>
</map>
