<?xml version="1.0" encoding="UTF-8"?>
<map version="1.10" tiledversion="1.11.0" orientation="orthogonal" renderorder="right-down" width="20" height="12" tilewidth="48" tileheight="48" infinite="0" nextlayerid="3" nextobjectid="12">
 <properties>
  <property name="title" value="Màn 16 — Cồn Cát"/>
  <property name="background" value="game/level_01_background.png"/>
  <property name="startingLives" type="int" value="22"/>
  <property name="startingGold" type="int" value="148"/>
  <property name="timeBetweenWaves" type="float" value="3.0"/>
  <property name="towers" value="arrow,cannon,flamingArrow"/>
  <property name="enemyHp" type="float" value="287"/>
  <property name="enemySpeed" type="float" value="68"/>
  <property name="enemyGold" type="int" value="11"/>
  <property name="enemyLives" type="int" value="1"/>
  <property name="waves" value="11@0.62;12@0.60;13@0.58;7@0.56+7@0.90;15@0.54;16@0.52;17@0.50;9@0.48+9@0.77;19@0.46;20@0.44;13@0.42+12@0.67"/>
 </properties>
 <objectgroup id="1" name="path">
  <object id="1" name="river" x="0" y="0">
   <polyline points="984,264 840,264 840,456 600,456 600,120 360,120 360,360 168,360 168,72 -24,72"/>
  </object>
 </objectgroup>
 <objectgroup id="2" name="buildspots">
  <object id="2" x="888" y="360"><point/></object>
  <object id="3" x="744" y="360"><point/></object>
  <object id="4" x="696" y="504"><point/></object>
  <object id="5" x="504" y="312"><point/></object>
  <object id="6" x="648" y="216"><point/></object>
  <object id="7" x="456" y="216"><point/></object>
  <object id="8" x="264" y="264"><point/></object>
  <object id="9" x="264" y="456"><point/></object>
  <object id="10" x="72" y="168"><point/></object>
 </objectgroup>
</map>
