<?xml version="1.0" encoding="UTF-8"?>
<map version="1.10" tiledversion="1.11.0" orientation="orthogonal" renderorder="right-down" width="20" height="12" tilewidth="48" tileheight="48" infinite="0" nextlayerid="3" nextobjectid="12">
 <properties>
  <property name="title" value="Màn 20 — Bãi Sậy"/>
  <property name="background" value="game/level_01_background.png"/>
  <property name="startingLives" type="int" value="24"/>
  <property name="startingGold" type="int" value="160"/>
  <property name="timeBetweenWaves" type="float" value="3.0"/>
  <property name="towers" value="arrow,cannon,flamingArrow"/>
  <property name="enemyHp" type="float" value="395"/>
  <property name="enemySpeed" type="float" value="71"/>
  <property name="enemyGold" type="int" value="12"/>
  <property name="enemyLives" type="int" value="1"/>
  <property name="waves" value="12@0.57;13@0.55;14@0.53;8@0.51+7@0.82;16@0.49;17@0.47;18@0.45;10@0.43+9@0.69;20@0.41;21@0.39;22@0.37;12@0.35+11@0.56;14@0.33+14@0.53"/>
 </properties>
 <objectgroup id="1" name="path">
  <object id="1" name="river" x="0" y="0">
   <polyline points="984,72 744,72 744,360 552,360 552,72 360,72 360,360 168,360 168,72 -24,72"/>
  </object>
 </objectgroup>
 <objectgroup id="2" name="buildspots">
  <object id="2" x="840" y="216"><point/></object>
  <object id="3" x="648" y="216"><point/></object>
  <object id="4" x="648" y="456"><point/></object>
  <object id="5" x="456" y="216"><point/></object>
  <object id="6" x="456" y="456"><point/></object>
  <object id="7" x="264" y="216"><point/></object>
  <object id="8" x="264" y="456"><point/></object>
  <object id="9" x="72" y="216"><point/></object>
  <object id="10" x="72" y="24"><point/></object>
 </objectgroup>
</map>
