<?xml version="1.0" encoding="UTF-8"?>
<map version="1.10" tiledversion="1.11.0" orientation="orthogonal" renderorder="right-down" width="20" height="12" tilewidth="48" tileheight="48" infinite="0" nextlayerid="3" nextobjectid="12">
 <properties>
  <property name="title" value="Màn 4 — Dòng xoáy"/>
  <property name="background" value="game/level_01_background.png"/>
  <property name="startingLives" type="int" value="20"/>
  <property name="startingGold" type="int" value="112"/>
  <property name="timeBetweenWaves" type="float" value="3.0"/>
  <property name="towers" value="arrow,cannon,flamingArrow"/>
  <property name="enemyHp" type="float" value="59"/>
  <property name="enemySpeed" type="float" value="58"/>
  <property name="enemyGold" type="int" value="8"/>
  <property name="enemyLives" type="int" value="1"/>
  <property name="waves" value="7@0.78;8@0.76;9@0.74;5@0.72+5@1.15;11@0.70;8@0.68+8@1.09"/>
 </properties>
 <objectgroup id="1" name="path">
  <object id="1" name="river" x="0" y="0">
   <polyline points="984,312 840,312 840,120 600,120 600,456 360,456 360,216 168,216 168,504 -24,504"/>
  </object>
 </objectgroup>
 <objectgroup id="2" name="buildspots">
  <object id="2" x="888" y="216"><point/></object>
  <object id="3" x="744" y="216"><point/></object>
  <object id="4" x="696" y="72"><point/></object>
  <object id="5" x="504" y="264"><point/></object>
  <object id="6" x="648" y="360"><point/></object>
  <object id="7" x="456" y="360"><point/></object>
  <object id="8" x="264" y="312"><point/></object>
  <object id="9" x="264" y="120"><point/></object>
  <object id="10" x="72" y="408"><point/></object>
 </objectgroup>
</map>
