<?xml version="1.0" encoding="UTF-8"?>
<map version="1.10" tiledversion="1.11.0" orientation="orthogonal" renderorder="right-down" width="20" height="12" tilewidth="48" tileheight="48" infinite="0" nextlayerid="3" nextobjectid="12">
 <properties>
  <property name="title" value="Màn 21 — Xẻo Quýt"/>
  <property name="background" value="game/level_01_background.png"/>
  <property name="startingLives" type="int" value="24"/>
  <property name="startingGold" type="int" value="163"/>
  <property name="timeBetweenWaves" type="float" value="3.0"/>
  <property name="towers" value="arrow,cannon,flamingArrow"/>
  <property name="enemyHp" type="float" value="424"/>
  <property name="enemySpeed" type="float" value="72"/>
  <property name="enemyGold" type="int" value="12"/>
  <property name="enemyLives" type="int" value="1"/>
  <property name="waves" value="13@0.56;14@0.54;15@0.52;8@0.50+8@0.80;17@0.48;18@0.46;19@0.44;10@0.42+10@0.67;21@0.40;22@0.38;23@0.36;12@0.34+12@0.54;25@0.32;15@0.30+15@0.48"/>
 </properties>
 <objectgroup id="1" name="path">
  <object id="1" name="river" x="0" y="0">
   <polyline points="-24,120 168,120 168,456 456,456 456,168 744,168 744,456 984,456"/>
  </object>
 </objectgroup>
 <objectgroup id="2" name="buildspots">
  <object id="2" x="120" y="216"><point/></object>
  <object id="3" x="264" y="360"><point/></object>
  <object id="4" x="312" y="504"><point/></object>
  <object id="5" x="408" y="312"><point/></object>
  <object id="6" x="552" y="216"><point/></object>
  <object id="7" x="600" y="72"><point/></object>
  <object id="8" x="696" y="312"><point/></object>
  <object id="9" x="840" y="360"><point/></object>
  <object id="10" x="648" y="504"><point/></object>
 </objectgroup>
</map>
