<?xml version="1.0" encoding="UTF-8"?>
<map version="1.10" tiledversion="1.11.0" orientation="orthogonal" renderorder="right-down" width="20" height="12" tilewidth="48" tileheight="48" infinite="0" nextlayerid="3" nextobjectid="12">
 <properties>
  <property name="title" value="Màn 6 — Thác Bạc"/>
  <property name="background" value="game/level_01_background.png"/>
  <property name="startingLives" type="int" value="20"/>
  <property name="startingGold" type="int" value="118"/>
  <property name="timeBetweenWaves" type="float" value="3.0"/>
  <property name="towers" value="arrow,cannon,flamingArrow"/>
  <property name="enemyHp" type="float" value="87"/>
  <property name="enemySpeed" type="float" value="60"/>
  <property name="enemyGold" type="int" value="8"/>
  <property name="enemyLives" type="int" value="1"/>
  <property name="waves" value="8@0.75;9@0.73;10@0.71;6@0.69+5@1.10;12@0.67;13@0.65;9@0.63+9@1.01"/>
 </properties>
 <objectgroup id="1" name="path">
  <object id="1" name="river" x="0" y="0">
   <polyline points="984,72 72,72 72,264 888,264 888,456 -24,456"/>
  </object>
 </objectgroup>
 <objectgroup id="2" name="buildspots">
  <object id="2" x="792" y="168"><point/></object>
  <object id="3" x="504" y="168"><point/></object>
  <object id="4" x="216" y="168"><point/></object>
  <object id="5" x="744" y="360"><point/></object>
  <object id="6" x="456" y="360"><point/></object>
  <object id="7" x="168" y="360"><point/></object>
  <object id="8" x="648" y="552"><point/></object>
  <object id="9" x="360" y="552"><point/></object>
  <object id="10" x="120" y="168"><point/></object>
 </objectgroup>
</map>
