<?xml version="1.0" encoding="UTF-8"?>
<map version="1.10" tiledversion="1.11.0" orientation="orthogonal" renderorder="right-down" width="20" height="12" tilewidth="48" tileheight="48" infinite="0" nextlayerid="3" nextobjectid="12">
 <properties>
  <property name="title" value="Màn 17 — Lạch Sâu"/>
  <property name="background" value="game/level_01_background.png"/>
  <property name="startingLives" type="int" value="22"/>
  <property name="startingGold" type="int" value="151"/>
  <property name="timeBetweenWaves" type="float" value="3.0"/>
  <property name="towers" value="arrow,cannon,flamingArrow"/>
  <property name="enemyHp" type="float" value="312"/>
  <property name="enemySpeed" type="float" value="69"/>
  <property name="enemyGold" type="int" value="11"/>
  <property name="enemyLives" type="int" value="1"/>
  <property name="waves" value="11@0.61;12@0.59;13@0.57;7@0.55+7@0.88;15@0.53;16@0.51;17@0.49;9@0.47+9@0.75;19@0.45;20@0.43;21@0.41;13@0.39+13@0.62"/>
 </properties>
 <objectgroup id="1" name="path">
  <object id="1" name="river" x="0" y="0">
   <polyline points="984,504 744,504 744,264 888,264 888,72 504,72 504,408 312,408 312,168 120,168 120,456 -24,456"/>
  </object>
 </objectgroup>
 <objectgroup id="2" name="buildspots">
  <object id="2" x="840" y="408"><point/></object>
  <object id="3" x="648" y="408"><point/></object>
  <object id="4" x="648" y="168"><point/></object>
  <object id="5" x="792" y="168"><point/></object>
  <object id="6" x="408" y="216"><point/></object>
  <object id="7" x="600" y="264"><point/></object>
  <object id="8" x="216" y="312"><point/></object>
  <object id="9" x="216" y="72"><point/></object>
  <object id="10" x="72" y="360"><point/></object>
 </objectgroup>
</map>
