<?xml version="1.0" encoding="UTF-8"?>
<map version="1.10" tiledversion="1.11.0" orientation="orthogonal" renderorder="right-down" width="20" height="12" tilewidth="48" tileheight="48" infinite="0" nextlayerid="3" nextobjectid="12">
 <properties>
  <property name="title" value="Màn 11 — Đầm Sen"/>
  <property name="background" value="game/level_01_background.png"/>
  <property name="startingLives" type="int" value="22"/>
  <property name="startingGold" type="int" value="133"/>
  <property name="timeBetweenWaves" type="float" value="3.0"/>
  <property name="towers" value="arrow,cannon,flamingArrow"/>
  <property name="enemyHp" type="float" value="174"/>
  <property name="enemySpeed" type="float" value="64"/>
  <property name="enemyGold" type="int" value="9"/>
  <property name="enemyLives" type="int" value="1"/>
  <property name="waves" value="9@0.69;10@0.67;11@0.65;6@0.63+6@1.01;13@0.61;14@0.59;15@0.57;8@0.55+8@0.88;11@0.53+10@0.85"/>
 </properties>
 <objectgroup id="1" name="path">
  <object id="1" name="river" x="0" y="0">
   <polyline points="-24,504 216,504 216,264 72,264 72,72 456,72 456,408 648,408 648,168 840,168 840,456 984,456"/>
  </object>
 </objectgroup>
 <objectgroup id="2" name="buildspots">
  <object id="2" x="120" y="408"><point/></object>
  <object id="3" x="312" y="408"><point/></object>
  <object id="4" x="312" y="168"><point/></object>
  <object id="5" x="168" y="168"><point/></object>
  <object id="6" x="552" y="216"><point/></object>
  <object id="7" x="360" y="264"><point/></object>
  <object id="8" x="744" y="312"><point/></object>
  <object id="9" x="744" y="72"><point/></object>
  <object id="10" x="888" y="360"><point/></object>
 </objectgroup>
</map>
