<?xml version="1.0" encoding="UTF-8"?>
<map version="1.10" tiledversion="1.11.0" orientation="orthogonal" renderorder="right-down" width="20" height="12" tilewidth="48" tileheight="48" infinite="0" nextlayerid="3" nextobjectid="12">
 <properties>
  <property name="title" value="Màn 23 — Ngã Bảy"/>
  <property name="background" value="game/level_01_background.png"/>
  <property name="startingLives" type="int" value="24"/>
  <property name="startingGold" type="int" value="169"/>
  <property name="timeBetweenWaves" type="float" value="3.0"/>
  <property name="towers" value="arrow,cannon,flamingArrow"/>
  <property name="enemyHp" type="float" value="486"/>
  <property name="enemySpeed" type="float" value="73"/>
  <property name="enemyGold" type="int" value="12"/>
  <property name="enemyLives" type="int" value="1"/>
  <property name="waves" value="13@0.53;14@0.51;15@0.49;8@0.47+8@0.75;17@0.45;18@0.43;19@0.41;10@0.39+10@0.62;21@0.37;22@0.35;23@0.33;12@0.31+12@0.50;25@0.29;26@0.27;16@0.25+15@0.40"/>
 </properties>
 <objectgroup id="1" name="path">
  <object id="1" name="river" x="0" y="0">
   <polyline points="-24,72 216,72 216,312 72,312 72,504 456,504 456,168 648,168 648,408 840,408 840,120 984,120"/>
  </object>
 </objectgroup>
 <objectgroup id="2" name="buildspots">
  <object id="2" x="120" y="168"><point/></object>
  <object id="3" x="312" y="168"><point/></object>
  <object id="4" x="312" y="408"><point/></object>
  <object id="5" x="168" y="408"><point/></object>
  <object id="6" x="552" y="360"><point/></object>
  <object id="7" x="360" y="312"><point/></object>
  <object id="8" x="744" y="264"><point/></object>
  <object id="9" x="744" y="504"><point/></object>
  <object id="10" x="888" y="216"><point/></object>
 </objectgroup>
</map>
