<?xml version="1.0" encoding="UTF-8"?>
<map version="1.10" tiledversion="1.11.0" orientation="orthogonal" renderorder="right-down" width="20" height="12" tilewidth="48" tileheight="48" infinite="0" nextlayerid="3" nextobjectid="12">
 <properties>
  <property name="title" value="Màn 5 — Bến vắng"/>
  <property name="background" value="game/level_01_background.png"/>
  <property name="startingLives" type="int" value="20"/>
  <property name="startingGold" type="int" value="115"/>
  <property name="timeBetweenWaves" type="float" value="3.0"/>
  <property name="towers" value="arrow,cannon,flamingArrow"/>
  <property name="enemyHp" type="float" value="72"/>
  <property name="enemySpeed" type="float" value="59"/>
  <property name="enemyGold" type="int" value="8"/>
  <property name="enemyLives" type="int" value="1"/>
  <property name="waves" value="7@0.76;8@0.74;9@0.72;5@0.70+5@1.12;11@0.68;8@0.66+8@1.06"/>
 </properties>
 <objectgroup id="1" name="path">
  <object id="1" name="river" x="0" y="0">
   <polyline points="984,72 744,72 744,312 888,312 888,504 504,504 504,168 312,168 312,408 120,408 120,120 -24,120"/>
  </object>
 </objectgroup>
 <objectgroup id="2" name="buildspots">
  <object id="2" x="840" y="168"><point/></object>
  <object id="3" x="648" y="168"><point/></object>
  <object id="4" x="648" y="408"><point/></object>
  <object id="5" x="792" y="408"><point/></object>
  <object id="6" x="408" y="360"><point/></object>
  <object id="7" x="600" y="312"><point/></object>
  <object id="8" x="216" y="264"><point/></object>
  <object id="9" x="216" y="504"><point/></object>
  <object id="10" x="72" y="216"><point/></object>
 </objectgroup>
</map>
