<?xml version="1.0" encoding="UTF-8"?>
<map version="1.10" tiledversion="1.11.0" orientation="orthogonal" renderorder="right-down" width="20" height="12" tilewidth="48" tileheight="48" infinite="0" nextlayerid="3" nextobjectid="12">
 <properties>
  <property name="title" value="Màn 28 — Cửa Đại"/>
  <property name="background" value="game/level_01_background.png"/>
  <property name="startingLives" type="int" value="24"/>
  <property name="startingGold" type="int" value="184"/>
  <property name="timeBetweenWaves" type="float" value="3.0"/>
  <property name="towers" value="arrow,cannon,flamingArrow"/>
  <property name="enemyHp" type="float" value="659"/>
  <property name="enemySpeed" type="float" value="77"/>
  <property name="enemyGold" type="int" value="14"/>
  <property name="enemyLives" type="int" value="1"/>
  <property name="waves" value="15@0.47;16@0.45;17@0.43;9@0.41+9@0.66;19@0.39;20@0.37;21@0.35;11@0.33+11@0.53;23@0.31;24@0.29;25@0.27;13@0.25+13@0.40;27@0.23;28@0.22;29@0.22;15@0.22+15@0.35;18@0.22+17@0.35"/>
 </properties>
 <objectgroup id="1" name="path">
  <object id="1" name="river" x="0" y="0">
   <polyline points="984,312 840,312 840,120 600,120 600,456 360,456 360,216 168,216 168,504 -24,504"/>
  </object>
 </objectgroup>
 <objectgroup id="2" name="buildspots">
  <object id="2" x="888" y="216"><point/></object>
  <object id="3" x="744" y="216"><point/></object>
  <object id="4" x="696" y="72"><point/></object>
  <object id="5" x="504" y="264"><point/></object>
  <object id="6" x="648" y="360"><point/></object>
  <object id="7" x="456" y="360"><point/></object>
  <object id="8" x="264" y="312"><point/></object>
  <object id="9" x="264" y="120"><point/></object>
  <object id="10" x="72" y="408"><point/></object>
 </objectgroup>
</map>
