<?xml version="1.0" encoding="UTF-8"?>
<map version="1.10" tiledversion="1.11.0" orientation="orthogonal" renderorder="right-down" width="20" height="12" tilewidth="48" tileheight="48" infinite="0" nextlayerid="3" nextobjectid="12">
 <properties>
  <property name="title" value="Màn 25 — Vực Xoáy"/>
  <property name="background" value="game/level_01_background.png"/>
  <property name="startingLives" type="int" value="24"/>
  <property name="startingGold" type="int" value="175"/>
  <property name="timeBetweenWaves" type="float" value="3.0"/>
  <property name="towers" value="arrow,cannon,flamingArrow"/>
  <property name="enemyHp" type="float" value="552"/>
  <property name="enemySpeed" type="float" value="75"/>
  <property name="enemyGold" type="int" value="13"/>
  <property name="enemyLives" type="int" value="1"/>
  <property name="waves" value="14@0.50;15@0.48;16@0.46;9@0.44+8@0.70;18@0.42;19@0.40;20@0.38;11@0.36+10@0.58;22@0.34;23@0.32;24@0.30;13@0.28+12@0.45;26@0.26;27@0.24;16@0.22+16@0.35"/>
 </properties>
 <objectgroup id="1" name="path">
  <object id="1" name="river" x="0" y="0">
   <polyline points="-24,312 504,312 504,72 168,72 168,504 840,504 840,216 552,216 552,408 984,408"/>
  </object>
 </objectgroup>
 <objectgroup id="2" name="buildspots">
  <object id="2" x="360" y="168"><point/></object>
  <object id="3" x="72" y="216"><point/></object>
  <object id="4" x="312" y="408"><point/></object>
  <object id="5" x="456" y="456"><point/></object>
  <object id="6" x="696" y="360"><point/></object>
  <object id="7" x="744" y="312"><point/></object>
  <object id="8" x="936" y="312"><point/></object>
  <object id="9" x="120" y="552"><point/></object>
  <object id="10" x="408" y="120"><point/></object>
 </objectgroup>
</map>
