<?xml version="1.0" encoding="UTF-8"?>
<map version="1.10" tiledversion="1.11.0" orientation="orthogonal" renderorder="right-down" width="20" height="12" tilewidth="48" tileheight="48" infinite="0" nextlayerid="3" nextobjectid="12">
 <properties>
  <property name="title" value="Màn 9 — Cầu Gãy"/>
  <property name="background" value="game/level_01_background.png"/>
  <property name="startingLives" type="int" value="20"/>
  <property name="startingGold" type="int" value="127"/>
  <property name="timeBetweenWaves" type="float" value="3.0"/>
  <property name="towers" value="arrow,cannon,flamingArrow"/>
  <property name="enemyHp" type="float" value="136"/>
  <property name="enemySpeed" type="float" value="62"/>
  <property name="enemyGold" type="int" value="9"/>
  <property name="enemyLives" type="int" value="1"/>
  <property name="waves" value="9@0.71;10@0.69;11@0.67;6@0.65+6@1.04;13@0.63;14@0.61;15@0.59;10@0.57+10@0.91"/>
 </properties>
 <objectgroup id="1" name="path">
  <object id="1" name="river" x="0" y="0">
   <polyline points="-24,456 168,456 168,120 456,120 456,408 744,408 744,120 984,120"/>
  </object>
 </objectgroup>
 <objectgroup id="2" name="buildspots">
  <object id="2" x="120" y="360"><point/></object>
  <object id="3" x="264" y="216"><point/></object>
  <object id="4" x="312" y="72"><point/></object>
  <object id="5" x="408" y="264"><point/></object>
  <object id="6" x="552" y="360"><point/></object>
  <object id="7" x="600" y="504"><point/></object>
  <object id="8" x="696" y="264"><point/></object>
  <object id="9" x="840" y="216"><point/></object>
  <object id="10" x="648" y="72"><point/></object>
 </objectgroup>
</map>
