<?xml version="1.0" encoding="UTF-8"?>
<map version="1.10" tiledversion="1.11.0" orientation="orthogonal" renderorder="right-down" width="20" height="12" tilewidth="48" tileheight="48" infinite="0" nextlayerid="3" nextobjectid="12">
 <properties>
  <property name="title" value="Màn 7 — Kênh Đôi"/>
  <property name="background" value="game/level_01_background.png"/>
  <property name="startingLives" type="int" value="20"/>
  <property name="startingGold" type="int" value="121"/>
  <property name="timeBetweenWaves" type="float" value="3.0"/>
  <property name="towers" value="arrow,cannon,flamingArrow"/>
  <property name="enemyHp" type="float" value="102"/>
  <property name="enemySpeed" type="float" value="61"/>
  <property name="enemyGold" type="int" value="8"/>
  <property name="enemyLives" type="int" value="1"/>
  <property name="waves" value="8@0.74;9@0.72;10@0.70;6@0.68+5@1.09;12@0.66;13@0.64;9@0.62+9@0.99"/>
 </properties>
 <objectgroup id="1" name="path">
  <object id="1" name="river" x="0" y="0">
   <polyline points="984,312 456,312 456,72 792,72 792,504 120,504 120,216 408,216 408,408 -24,408"/>
  </object>
 </objectgroup>
 <objectgroup id="2" name="buildspots">
  <object id="2" x="600" y="168"><point/></object>
  <object id="3" x="888" y="216"><point/></object>
  <object id="4" x="648" y="408"><point/></object>
  <object id="5" x="504" y="456"><point/></object>
  <object id="6" x="264" y="360"><point/></object>
  <object id="7" x="216" y="312"><point/></object>
  <object id="8" x="24" y="312"><point/></object>
  <object id="9" x="840" y="552"><point/></object>
  <object id="10" x="552" y="120"><point/></object>
 </objectgroup>
</map>
