<?xml version="1.0" encoding="UTF-8"?>
<map version="1.10" tiledversion="1.11.0" orientation="orthogonal" renderorder="right-down" width="20" height="12" tilewidth="48" tileheight="48" infinite="0" nextlayerid="3" nextobjectid="12">
 <properties>
  <property name="title" value="Màn 12 — Vịnh Cạn"/>
  <property name="background" value="game/level_01_background.png"/>
  <property name="startingLives" type="int" value="22"/>
  <property name="startingGold" type="int" value="136"/>
  <property name="timeBetweenWaves" type="float" value="3.0"/>
  <property name="towers" value="arrow,cannon,flamingArrow"/>
  <property name="enemyHp" type="float" value="195"/>
  <property name="enemySpeed" type="float" value="65"/>
  <property name="enemyGold" type="int" value="10"/>
  <property name="enemyLives" type="int" value="1"/>
  <property name="waves" value="10@0.67;11@0.65;12@0.63;7@0.61+6@0.98;14@0.59;15@0.57;16@0.55;9@0.53+8@0.85;18@0.51;12@0.49+11@0.78"/>
 </properties>
 <objectgroup id="1" name="path">
  <object id="1" name="river" x="0" y="0">
   <polyline points="-24,504 888,504 888,312 72,312 72,120 984,120"/>
  </object>
 </objectgroup>
 <objectgroup id="2" name="buildspots">
  <object id="2" x="168" y="408"><point/></object>
  <object id="3" x="456" y="408"><point/></object>
  <object id="4" x="744" y="408"><point/></object>
  <object id="5" x="216" y="216"><point/></object>
  <object id="6" x="504" y="216"><point/></object>
  <object id="7" x="792" y="216"><point/></object>
  <object id="8" x="312" y="24"><point/></object>
  <object id="9" x="600" y="24"><point/></object>
  <object id="10" x="840" y="408"><point/></object>
 </objectgroup>
</map>
