<?xml version="1.0" encoding="UTF-8"?>
<map version="1.10" tiledversion="1.11.0" orientation="orthogonal" renderorder="right-down" width="20" height="12" tilewidth="48" tileheight="48" infinite="0" nextlayerid="3" nextobjectid="12">
 <properties>
  <property name="title" value="Màn 10 — Rừng Ngập"/>
  <property name="background" value="game/level_01_background.png"/>
  <property name="startingLives" type="int" value="22"/>
  <property name="startingGold" type="int" value="130"/>
  <property name="timeBetweenWaves" type="float" value="3.0"/>
  <property name="towers" value="arrow,cannon,flamingArrow"/>
  <property name="enemyHp" type="float" value="155"/>
  <property name="enemySpeed" type="float" value="63"/>
  <property name="enemyGold" type="int" value="9"/>
  <property name="enemyLives" type="int" value="1"/>
  <property name="waves" value="9@0.70;10@0.68;11@0.66;6@0.64+6@1.02;13@0.62;14@0.60;15@0.58;8@0.56+8@0.90;11@0.54+10@0.86"/>
 </properties>
 <objectgroup id="1" name="path">
  <object id="1" name="river" x="0" y="0">
   <polyline points="-24,264 120,264 120,456 360,456 360,120 600,120 600,360 792,360 792,72 984,72"/>
  </object>
 </objectgroup>
 <objectgroup id="2" name="buildspots">
  <object id="2" x="72" y="360"><point/></object>
  <object id="3" x="216" y="360"><point/></object>
  <object id="4" x="264" y="504"><point/></object>
  <object id="5" x="456" y="312"><point/></object>
  <object id="6" x="312" y="216"><point/></object>
  <object id="7" x="504" y="216"><point/></object>
  <object id="8" x="696" y="264"><point/></object>
  <object id="9" x="696" y="456"><point/></object>
  <object id="10" x="888" y="168"><point/></object>
 </objectgroup>
</map>
