<?xml version="1.0" encoding="UTF-8"?>
<map version="1.10" tiledversion="1.11.0" orientation="orthogonal" renderorder="right-down" width="20" height="12" tilewidth="48" tileheight="48" infinite="0" nextlayerid="3" nextobjectid="12">
 <properties>
  <property name="title" value="Màn 24 — Hồ Gió"/>
  <property name="background" value="game/level_01_background.png"/>
  <property name="startingLives" type="int" value="24"/>
  <property name="startingGold" type="int" value="172"/>
  <property name="timeBetweenWaves" type="float" value="3.0"/>
  <property name="towers" value="arrow,cannon,flamingArrow"/>
  <property name="enemyHp" type="float" value="519"/>
  <property name="enemySpeed" type="float" value="74"/>
  <property name="enemyGold" type="int" value="13"/>
  <property name="enemyLives" type="int" value="1"/>
  <property name="waves" value="14@0.52;15@0.50;16@0.48;9@0.46+8@0.74;18@0.44;19@0.42;20@0.40;11@0.38+10@0.61;22@0.36;23@0.34;24@0.32;13@0.30+12@0.48;26@0.28;27@0.26;16@0.24+16@0.38"/>
 </properties>
 <objectgroup id="1" name="path">
  <object id="1" name="river" x="0" y="0">
   <polyline points="-24,72 888,72 888,264 72,264 72,456 984,456"/>
  </object>
 </objectgroup>
 <objectgroup id="2" name="buildspots">
  <object id="2" x="168" y="168"><point/></object>
  <object id="3" x="456" y="168"><point/></object>
  <object id="4" x="744" y="168"><point/></object>
  <object id="5" x="216" y="360"><point/></object>
  <object id="6" x="504" y="360"><point/></object>
  <object id="7" x="792" y="360"><point/></object>
  <object id="8" x="312" y="552"><point/></object>
  <object id="9" x="600" y="552"><point/></object>
  <object id="10" x="840" y="168"><point/></object>
 </objectgroup>
</map>
